client/src/assets/icons/furniture.svg

<svg width="58" height="58" viewBox="0 0 58 58" fill="none" xmlns="http://www.w3.org/2000/svg">
<path d="M53.9342 12.76H4.08436C2.48124 12.76 1.16928 14.2181 1.16928 15.66C1.16928 17.1019 2.48124 18.5588 4.08436 18.5588H4.78848V24.3589H53.3008V18.5588H53.9342C55.5385 18.5588 56.8493 17.1019 56.8493 15.66C56.8493 14.2181 55.5385 12.76 53.9342 12.76ZM29.0093 21.4832C28.2042 21.4832 27.5523 20.8116 27.5523 19.9845C27.5523 19.1574 28.2042 18.4858 29.0093 18.4858C29.8155 18.4858 30.4662 19.1574 30.4662 19.9845C30.4662 20.8116 29.8155 21.4832 29.0093 21.4832ZM4.78848 35.9577H53.3008V26.68H4.78848V35.9577ZM29.0093 29.7239C29.8155 29.7239 30.4662 30.3943 30.4662 31.2214C30.4662 32.0497 29.8155 32.7201 29.0093 32.7201C28.2042 32.7201 27.5523 32.0497 27.5523 31.2214C27.5512 30.3943 28.2042 29.7239 29.0093 29.7239ZM4.78848 43.9582V50.7024C4.78848 51.526 4.89172 52.2012 5.69328 52.2012H11.5211C12.3227 52.2012 12.6858 51.526 12.6858 50.7024V46.3988H45.4036V50.7024C45.4036 51.526 45.6959 52.2012 46.4963 52.2012H52.3253C53.1245 52.2012 53.2997 51.526 53.2997 50.7024V38.28H4.78848V43.9582ZM29.0093 40.9619C29.8155 40.9619 30.4662 41.6336 30.4662 42.4595C30.4662 43.2889 29.8155 43.9571 29.0093 43.9571C28.2042 43.9571 27.5523 43.2889 27.5523 42.4595C27.5512 41.6347 28.2042 40.9619 29.0093 40.9619Z" fill="#011034"/>
</svg>

<svg xmlns="http://www.w3.org/2000/svg" width="58" height="58" fill="none" viewBox="0 0 58 58">
  <path fill="#011034" d="M53.934 12.76H4.084c-1.603 0-2.915 1.458-2.915 2.9s1.312 2.899 2.915 2.899h.704v5.8h48.513v-5.8h.633c1.604 0 2.915-1.457 2.915-2.899s-1.31-2.9-2.915-2.9ZM29.01 21.483c-.805 0-1.457-.671-1.457-1.498 0-.828.652-1.5 1.457-1.5.806 0 1.457.672 1.457 1.5 0 .827-.65 1.498-1.457 1.498ZM4.79 35.958H53.3V26.68H4.788v9.278Zm24.22-6.234c.806 0 1.457.67 1.457 1.497 0 .829-.65 1.5-1.457 1.5-.805 0-1.457-.671-1.457-1.5 0-.827.652-1.497 1.457-1.497ZM4.79 43.958v6.744c0 .824.103 1.5.904 1.5h5.828c.802 0 1.165-.676 1.165-1.5V46.4h32.718v4.303c0 .824.292 1.5 1.092 1.5h5.83c.798 0 .974-.676.974-1.5V38.28H4.788v5.678Zm24.22-2.996c.806 0 1.457.672 1.457 1.497 0 .83-.65 1.498-1.457 1.498-.805 0-1.457-.668-1.457-1.498 0-.824.652-1.497 1.457-1.497Z"/>
</svg>
